X: 28101
T: Mr. Morison Of Bognie
R: jig
M: 6/8
K: Amajor
E|A2GA2G|ABcd2B|c2A ecA|F3F2E|A2GA2G|ABcd2B|c2e ef^d|e3e2c|
dfdB2d|cecA2c|d2c BcA|F3F2E|A2GA2G|ABcd2B|cBA EFG|A3A2g|
agf efg|agba2e|a2e edc|c3B2g|agf efg|agb agf|ecA EFG|A3A2g|
a2e cde|f2d Bcd|e2c ABc|F3F2E|A2GA2G|ABcd2B|cBA EFG|A3A2||

